!!!COM:	Josquin des Prez
!!!CDT:	~1450-1521/08/27
!!!OPR:	Missa Sine nomine
!!!OTA:	Missa Ad fugam
!!!ONM:	5
!!!OTL:	Agnus Dei
!!!AGN:	Mass; Agnus Dei
!!!SCT:	NJE 12.2
!!!SCA:	New Josquin Edition 12.2
!!!voices: 4
!!!voices-OPR:	4
**kern	**text	**kern	**text	**kern	**text	**kern	**text
*staff4	*staff4	*staff3	*staff3	*staff2	*staff2	*staff1	*staff1
*Ivox	*	*Ivox	*	*Ivox	*	*Ivox	*
*I"Bassus	*	*I"Tenor	*	*I"Altus	*	*I"Superius	*
*I'B	*	*I'T	*	*I'A	*	*I'S	*
*>[A,B,C]	*>[A,B,C]	*>[A,B,C]	*>[A,B,C]	*>[A,B,C]	*>[A,B,C]	*>[A,B,C]	*>[A,B,C]
*>A	*>A	*>A	*>A	*>A	*>A	*>A	*>A
*clefF4	*	*clefGv2	*	*clefGv2	*	*clefG2	*
*k[]	*	*k[]	*	*k[]	*	*k[]	*
*M3/1	*	*M3/1	*	*M3/1	*	*M3/1	*
*met(O)	*	*met(O)	*	*met(O)	*	*met(O)	*
!!section: Agnus Dei I
!!!OMD: Agnus Dei I
=1-	=1-	=1-	=1-	=1-	=1-	=1-	=1-
!LO:TX:Z=15:X=-40:t=Tenor in diapente	!	!	!	!	!	!	!
!LO:TX:Z=34:X=-40:t=Canon at the upper fifth (B-->T, 2 breves)	!	!	!	!	!	!	!
0.r	.	0.r	.	2.A/	A-	0a	A-
.	.	.	.	4B\	.	.	.
.	.	.	.	2c\	.	.	.
.	.	.	.	2d\	.	.	.
.	.	.	.	2c\	-gnus	1a	-gnus
.	.	.	.	2d\	.	.	.
=2	=2	=2	=2	=2	=2	=2	=2
0.r	.	0.r	.	2A/	De-	1.a	De-
.	.	.	.	2d\	.	.	.
.	.	.	.	2c\	.	.	.
.	.	.	.	2d\	.	2f/	.
.	.	.	.	1B	-i,	1g	.
=3	=3	=3	=3	=3	=3	=3	=3
0.r	.	0.r	.	2r	.	1a	-i,
.	.	.	.	2A/	A-	.	.
.	.	.	.	2.c\	.	2e/	A-
.	.	.	.	.	.	2a/	.
.	.	.	.	4d\	.	.	.
.	.	.	.	2e\	.	2g/	.
.	.	.	.	2A/	-gnus	2a/	-gnus
=4	=4	=4	=4	=4	=4	=4	=4
0.r	.	0.r	.	2.c\	De-	2e/	De-
.	.	.	.	.	.	2a/	.
.	.	.	.	4d\	.	.	.
.	.	.	.	2e\	.	2g/	.
.	.	.	.	2c\	.	2a/	.
.	.	.	.	2d\	.	1f	.
.	.	.	.	[2A/	.	.	.
=5	=5	=5	=5	=5	=5	=5	=5
0A	A-	0.r	.	4A/]	.	1e	-i,
.	.	.	.	4B\	.	.	.
.	.	.	.	4c\	.	.	.
.	.	.	.	4d\	.	.	.
.	.	.	.	2e\	.	1cc	A-
.	.	.	.	2f\	.	.	.
1A	-gnus	.	.	2e\	.	1cc	-gnus
.	.	.	.	2A/	.	.	.
=6	=6	=6	=6	=6	=6	=6	=6
1.A	De-	0.r	.	2.c\	.	1.cc	De-
.	.	.	.	4d\	.	.	.
.	.	.	.	2e\	.	.	.
2F\	.	.	.	2f\	.	2a/	.
1G	.	.	.	2d\	.	1b	.
.	.	.	.	[2e\	.	.	.
=7	=7	=7	=7	=7	=7	=7	=7
1A	-i,	0e	A-	4e\]	.	1cc	-i
.	.	.	.	4d\	.	.	.
.	.	.	.	2c\	.	.	.
2E\	A-	.	.	2B\	.	2r	.
2A\	.	.	.	2A/	-i,	2cc\	qui
2G\	-gnus	1e	-gnus	2r	.	2b\	tol-
2A\	.	.	.	2c\	qui	2cc\	.
=8	=8	=8	=8	=8	=8	=8	=8
2E\	De-	1.e	De-	4B\	tol-	2g/	.
.	.	.	.	4A/	.	.	.
2A\	.	.	.	2c\	.	2a/	.
2G\	.	.	.	2B\	.	2b\	.
2A\	.	2c\	.	2.A/	.	2cc\	.
1F	.	1d	.	.	.	1a	.
.	.	.	.	4G/	.	.	.
.	.	.	.	2A/	.	.	.
=9	=9	=9	=9	=9	=9	=9	=9
0E	-i,	1e	-i,	2B\	-lis,	1g	-lis,
.	.	.	.	2.e\	qui	.	.
.	.	2B\	A-	.	.	2.g/	qui
.	.	.	.	4d\	.	.	.
.	.	2e\	.	2c\	.	.	.
.	.	.	.	.	.	4a/	.
1r	.	2d\	-gnus	2B\	tol-	2b\	.
.	.	2e\	.	2E/	.	4g/	.
.	.	.	.	.	.	4a/	.
=10	=10	=10	=10	=10	=10	=10	=10
0.r	.	2B\	De-	2G/	.	2b\	.
.	.	2e\	.	2E/	.	2.cc\	tol-
.	.	2d\	.	1G	-lis,	.	.
.	.	.	.	.	.	4b\	.
.	.	2e\	.	.	.	1b	.
.	.	1c	.	1A	.	.	.
.	.	.	.	.	.	2a/	.
=11	=11	=11	=11	=11	=11	=11	=11
1E	qui	0B	-i,	2r	.	1.b	-lis
.	.	.	.	2E/	qui	.	.
1E	tol-	.	.	2.G/	tol-	.	.
.	.	.	.	.	.	2g/	.
.	.	.	.	4A/	.	.	.
1E	-lis	1r	.	2B\	.	1g	pec-
.	.	.	.	[2c\	.	.	.
=12	=12	=12	=12	=12	=12	=12	=12
0F	pec-	0.r	.	4c\]	.	1a	-ca-
.	.	.	.	4B\	.	.	.
.	.	.	.	2c\	.	.	.
.	.	.	.	2d\	.	1a	-ta
.	.	.	.	1e	.	.	.
1F	-ca-	.	.	.	.	1a	mun-
.	.	.	.	2d\	.	.	.
=13	=13	=13	=13	=13	=13	=13	=13
2E\	-ta	1B	qui	1e	-lis	0g	-di,
1G	mun-	.	.	.	.	.	.
.	.	1B	tol-	1E	.	.	.
2E\	.	.	.	.	.	.	.
1D	.	1B	-lis	1F	pec-	1r	.
=14	=14	=14	=14	=14	=14	=14	=14
1C	-di,	0c	pec-	2G/	-ca-	2.e/	qui
.	.	.	.	2A/	.	.	.
.	.	.	.	.	.	4f/	.
1r	.	.	.	2E/	.	2g/	.
.	.	.	.	2F/	.	2.a/	tol-
1C	qui	1c	-ca-	2E/	-ta	.	.
.	.	.	.	.	.	4g/	.
.	.	.	.	[2G/	mun-	2e/	.
=15	=15	=15	=15	=15	=15	=15	=15
0G	tol-	2B\	-ta	4G/]	.	1d	-lis
.	.	.	.	4A/	.	.	.
.	.	1d	mun-	4B\	.	.	.
.	.	.	.	4c\	.	.	.
.	.	.	.	2d\	.	2r	.
.	.	2B\	.	1e	.	2g/	pec-
1F	.	1A	.	.	.	2a/	-ca-
.	.	.	.	2d\	.	2f/	-ta
=16	=16	=16	=16	=16	=16	=16	=16
2E\	-lis	1G	-di,	2c\	.	2.g/	mun-
2.G\	pec-	.	.	2.B\	.	.	.
.	.	.	.	.	.	4f/	.
.	.	1r	.	.	.	4e/	.
4F\	.	.	.	4A/	.	4d/	.
2D\	.	.	.	2A/	-di,	1d	.
1E	-ca-	1G	qui	2r	.	.	.
.	.	.	.	2G/	qui	2g/	.
=17	=17	=17	=17	=17	=17	=17	=17
1D	-ta	0d	tol-	2A/	tol-	2f/	.
.	.	.	.	1B	.	2.d/	.
2r	.	.	.	.	.	.	.
.	.	.	.	.	.	4e/	.
2D\	mun-	.	.	2A/	-lis	2f/	.
2E\	.	1c	.	2r	.	2g/	.
2F\	.	.	.	2A/	pec-	2a/	.
=18	=18	=18	=18	=18	=18	=18	=18
2.G\	.	2B\	-lis	2B\	-ca-	2d/	.
.	.	2.d\	pec-	2G/	-ta	2.b\	.
4F\	.	.	.	.	.	.	.
2D\	.	.	.	1d	mun-	.	.
.	.	4c\	.	.	.	4a/	.
2F\	.	2A/	.	.	.	1a	.
1E	-di,	1B	-ca-	1e	.	.	.
.	.	.	.	.	.	2g#i/	.
=19	=19	=19	=19	=19	=19	=19	=19
2r	.	1A	-ta	1c	-di,	2a/	-di,
2A\	mi-	.	.	.	.	2cc\	mi-
2G\	.	2r	.	1d	.	2b\	.
2F\	-se-	2A/	mun-	.	.	2a/	-se-
1E	-re-	2B\	.	2r	.	2g/	-re-
.	.	2c\	.	2G/	mi-	2e/	-re
=20	=20	=20	=20	=20	=20	=20	=20
1D	-re,	2.d\	.	2A/	.	2.f/	no-
.	.	.	.	2B\	-se-	.	.
.	.	4c\	.	.	.	4g/	.
2r	.	2A/	.	2c\	-re-	0e	-bis,
1A	mi-	2c\	.	2A/	.	.	.
.	.	1B	-di,	1E	-re	.	.
2G\	-se-	.	.	.	.	.	.
=21	=21	=21	=21	=21	=21	=21	=21
2A\	-re-	2r	.	1c	no-	2r	.
2E\	.	2e\	mi-	.	.	2g/	mi-
1F	.	2d\	.	1A	.	1a	-se-
.	.	2c\	-se-	.	.	.	.
1G	.	1B	-re-	2.d\	.	1b	-re-
.	.	.	.	4B\	.	.	.
=22	=22	=22	=22	=22	=22	=22	=22
2A\	-re	1A	-re,	2c\	.	2e/	-re
2D\	no-	.	.	2d\	.	2.a/	no-
2.A\	.	2r	.	2c\	.	.	.
.	.	.	.	.	.	4b\	.
.	.	1e	mi-	2.A/	.	1cc	.
4G\	.	.	.	.	.	.	.
1F	.	.	.	.	.	.	.
.	.	.	.	4G/	.	.	.
.	.	2d\	-se-	2A/	.	4b\	.
.	.	.	.	.	.	4a/	.
=23	=23	=23	=23	=23	=23	=23	=23
2E\	-bis,	2e\	-re-	1B	-bis,	1g	-bis,
2G\	mi-	2B\	.	.	.	.	.
2F\	.	1c	.	2r	.	1r	.
2E\	-se-	.	.	2G/	mi-	.	.
1D	-re-	1d	.	2A/	.	1f	mi-
.	.	.	.	2F/	-se-	.	.
=24	=24	=24	=24	=24	=24	=24	=24
2C/	-re,	2e\	-re	1c	-re-	2g/	-se-
2F\	mi-	2A/	no-	.	.	2a/	.
2E\	-se-	2.e\	.	2.c\	-re	2g/	-re-
1A	-re-	.	.	.	.	2a/	.
.	.	4d\	.	4d\	.	.	.
.	.	1c	.	2e\	.	2e/	.
2F\	.	.	.	2f\	.	2a/	.
=25	=25	=25	=25	=25	=25	=25	=25
2G\	-re	2B\	-bis,	1d	no-	2g/	-re
2D\	no-	2d\	mi-	.	.	2.f/	no-
2E\	.	2c\	.	1G	-bis,	.	.
.	.	.	.	.	.	4e/	.
2G\	.	2B\	-se-	.	.	1e	.
1F	.	1A	-re-	2r	.	.	.
.	.	.	.	2A/	mi-	2d/	.
=26	=26	=26	=26	=26	=26	=26	=26
0E	-bis,	2G/	-re,	2B\	-se-	1e	-bis,
.	.	2c\	mi-	2.e\	-re-	.	.
.	.	2B\	-se-	.	.	2r	.
.	.	.	.	4d\	.	.	.
.	.	1e	-re-	2.c\	.	2e/	no-
1r	.	.	.	.	.	2.g/	.
.	.	.	.	4B\	.	.	.
.	.	2c\	.	2A/	.	.	.
.	.	.	.	.	.	4a/	.
=27	=27	=27	=27	=27	=27	=27	=27
0.r	.	2d\	-re	2G/	-re	2b\	.
.	.	2A/	no-	2c\	no-	2.cc\	.
.	.	2B\	.	1d	.	.	.
.	.	.	.	.	.	4b\	.
.	.	2d\	.	.	.	2b\	.
.	.	1c	.	1e	.	2.a/	.
.	.	.	.	.	.	4g/	.
=28	=28	=28	=28	=28	=28	=28	=28
0.El	bis.	0.Bl	-bis.	0.el	-bis.	0.gl	-bis.
!!LO:LB:i:g=z
=29||	=29||	=29||	=29||	=29||	=29||	=29||	=29||
*>B	*>B	*>B	*>B	*>B	*>B	*>B	*>B
*clefF4	*	*clefGv2	*	*clefGv2	*	*clefG2	*
*k[]	*	*k[]	*	*k[]	*	*k[]	*
*M2/1	*	*M2/1	*	*M2/1	*	*M2/1	*
*met(C|)	*	*met(C|)	*	*met(C|)	*	*met(C|)	*
!!section: Agnus Dei II
!!!OMD: Agnus Dei II
!	!	!	!	!LO:TX:Z=32:X=-40:t=Canon at the lower second (A-->T, 1 breve)	!	!	!
!	!	!	!	!LO:TX:Z=13:X=-40:t=Canon ung ton plus bas	!	!	!
0r	.	0r	.	1.e	A-	0r	.
.	.	.	.	4d\	.	.	.
.	.	.	.	4c\	.	.	.
=30	=30	=30	=30	=30	=30	=30	=30
0r	.	1.d	A-	1B	.	0r	.
.	.	.	.	1d	-gnus	.	.
.	.	4c\	.	.	.	.	.
.	.	4B\	.	.	.	.	.
=31	=31	=31	=31	=31	=31	=31	=31
0r	.	1A	.	1c	De-	0r	.
.	.	1c	-gnus	1A	-i,	.	.
=32	=32	=32	=32	=32	=32	=32	=32
0r	.	1B	De-	2r	.	0r	.
.	.	.	.	2d\	A-	.	.
.	.	1G	-i,	2e\	.	.	.
.	.	.	.	2d\	-gnus	.	.
=33	=33	=33	=33	=33	=33	=33	=33
0r	.	2r	.	2.c\	De-	0r	.
.	.	2c\	A-	.	.	.	.
.	.	.	.	4A/	.	.	.
.	.	2d\	.	2B\	.	.	.
.	.	2c\	-gnus	2A/	-i,	.	.
=34	=34	=34	=34	=34	=34	=34	=34
0r	.	2.B\	De-	2r	.	0r	.
.	.	.	.	2d\	qui-	.	.
.	.	4G/	.	.	.	.	.
.	.	2A/	.	2c\	.	.	.
.	.	2G/	-i,	2B\	.	.	.
=35	=35	=35	=35	=35	=35	=35	=35
0r	.	2r	.	1e	-tol-	0r	.
.	.	2c\	qui	.	.	.	.
.	.	2B\	.	2d\	-lis	.	.
.	.	2A/	.	2c\	pec-	.	.
=36	=36	=36	=36	=36	=36	=36	=36
0r	.	1d	tol-	1B	-ca-	0r	.
.	.	2c\	-lis	2A/	-ta	.	.
.	.	2B\	pec-	[2d\	mun-	.	.
=37	=37	=37	=37	=37	=37	=37	=37
0r	.	1A	-ca-	2d\]	.	0r	.
.	.	.	.	2c\	.	.	.
.	.	2G/	-ta	1e	.	.	.
.	.	[2c\	mun-	.	.	.	.
=38	=38	=38	=38	=38	=38	=38	=38
0r	.	2c\]	.	1.d	.	0r	.
.	.	2B\	.	.	.	.	.
.	.	1d	.	.	.	.	.
.	.	.	.	4c\	.	.	.
.	.	.	.	4B\	.	.	.
=39	=39	=39	=39	=39	=39	=39	=39
0r	.	1.c	.	1A	-di,	0r	.
.	.	.	.	2r	.	.	.
.	.	4B\	.	2A/	mi-	.	.
.	.	4A/	.	.	.	.	.
=40	=40	=40	=40	=40	=40	=40	=40
0r	.	1G	-di,	2B\	-se-	0r	.
.	.	.	.	2.d\	-re-	.	.
.	.	2r	.	.	.	.	.
.	.	.	.	4c\	.	.	.
.	.	2G/	mi-	4d\	.	.	.
.	.	.	.	4B\	.	.	.
=41	=41	=41	=41	=41	=41	=41	=41
0r	.	2A/	-se-	2c\	.	0r	.
.	.	2.c\	-re-	2.e\	.	.	.
.	.	4B\	.	4d\	.	.	.
.	.	4c\	.	4e\	.	.	.
.	.	4A/	.	4c\	.	.	.
=42	=42	=42	=42	=42	=42	=42	=42
0r	.	2B\	.	2d\	.	0r	.
.	.	2.d\	.	2B\	.	.	.
.	.	.	.	2.d\	.	.	.
.	.	4c\	.	.	.	.	.
.	.	4d\	.	.	.	.	.
.	.	4B\	.	4c\	.	.	.
=43	=43	=43	=43	=43	=43	=43	=43
0r	.	2c\	.	1A	-re	0r	.
.	.	2A/	.	.	.	.	.
.	.	2.c\	.	2r	.	.	.
.	.	.	.	[2c\	no-	.	.
.	.	4B\	.	.	.	.	.
=44	=44	=44	=44	=44	=44	=44	=44
0r	.	1G	-re	2c\]	.	0r	.
.	.	.	.	2B\	.	.	.
.	.	2r	.	1d	.	.	.
.	.	[2B\	no-	.	.	.	.
=45	=45	=45	=45	=45	=45	=45	=45
0r	.	2B\]	.	1.c	.	0r	.
.	.	2A/	.	.	.	.	.
.	.	1c	.	.	.	.	.
.	.	.	.	4B\	.	.	.
.	.	.	.	4A/	.	.	.
=46	=46	=46	=46	=46	=46	=46	=46
0r	.	0Bl	-bis.	0Gl	-bis.	0r	.
!!LO:LB:i:g=z
=47||	=47||	=47||	=47||	=47||	=47||	=47||	=47||
*>C	*>C	*>C	*>C	*>C	*>C	*>C	*>C
*clefF4	*	*clefGv2	*	*clefGv2	*	*clefG2	*
*k[]	*	*k[]	*	*k[]	*	*k[]	*
*M2/1	*	*M2/1	*	*M2/1	*	*M2/1	*
*met(C|)	*	*met(C|)	*	*met(C|)	*	*met(C|)	*
!!section: Agnus Dei III
!!!OMD: Agnus Dei III
1A	A-	0r	.	0r	.	0r	.
1c	-gnus	.	.	.	.	.	.
=48	=48	=48	=48	=48	=48	=48	=48
!	!	!	!	!	!	!LO:TX:Z=32:X=-60:t=Canon at the lower octave (S-->T, 2 breves)	!
!	!	!	!	!	!	!LO:TX:Z=13:X=-60:t=Tenor in diapason	!
2B\	De-	0r	.	1r	.	0r	.
1A	.	.	.	.	.	.	.
.	.	.	.	1e	A-	.	.
4G\	.	.	.	.	.	.	.
4F\	.	.	.	.	.	.	.
=49	=49	=49	=49	=49	=49	=49	=49
1E	-i,	0r	.	1g	-gnus	0r	.
1r	.	.	.	2f\	De-	.	.
.	.	.	.	[2e\	.	.	.
=50	=50	=50	=50	=50	=50	=50	=50
1.G	A-	0r	.	2e\]	.	0r	.
.	.	.	.	4d\	.	.	.
.	.	.	.	4c\	.	.	.
.	.	.	.	1B	-i,	.	.
4F\	-gnus	.	.	.	.	.	.
4G\	.	.	.	.	.	.	.
=51	=51	=51	=51	=51	=51	=51	=51
2A\	De-	0r	.	1r	.	0r	.
1G	.	.	.	.	.	.	.
.	.	.	.	[1d	A-	.	.
4F\	.	.	.	.	.	.	.
4E\	.	.	.	.	.	.	.
=52	=52	=52	=52	=52	=52	=52	=52
1D	-i,	0r	.	2d\]	.	0r	.
.	.	.	.	4c\	-gnus	.	.
.	.	.	.	4d\	.	.	.
1r	.	.	.	2e\	De-	.	.
.	.	.	.	[2d\	.	.	.
=53	=53	=53	=53	=53	=53	=53	=53
1.F	A-	0r	.	2d\]	.	1a	A-
.	.	.	.	4c\	.	.	.
.	.	.	.	4B\	.	.	.
.	.	.	.	1A	-i,	1cc	-gnus
4E\	-gnus	.	.	.	.	.	.
4F\	.	.	.	.	.	.	.
=54	=54	=54	=54	=54	=54	=54	=54
2G\	De-	0r	.	1r	.	2b\	De-
1F	.	.	.	.	.	1a	.
.	.	.	.	1A	A-	.	.
4E\	.	.	.	.	.	4g/	.
4D\	.	.	.	.	.	4f/	.
=55	=55	=55	=55	=55	=55	=55	=55
0A	-i,	1A	A-	1.c	-gnus	0e	-i,
.	.	1c	-gnus	.	.	.	.
.	.	.	.	4B\	.	.	.
.	.	.	.	4c\	.	.	.
=56	=56	=56	=56	=56	=56	=56	=56
1r	.	2B\	De-	2d\	De-	0r	.
.	.	1A	.	1c	.	.	.
1AA	A-	.	.	.	.	.	.
.	.	4G/	.	4B\	.	.	.
.	.	4F/	.	4A/	.	.	.
=57	=57	=57	=57	=57	=57	=57	=57
[0C	-gnus	0E	-i,	0e	.	1.g	A-
.	.	.	.	.	.	4f/	-gnus
.	.	.	.	.	.	4g/	.
=58	=58	=58	=58	=58	=58	=58	=58
1C]	.	0r	.	1c	.	2a/	De-
.	.	.	.	.	.	1g	.
[1GG	De-	.	.	1B	-i,	.	.
.	.	.	.	.	.	4f/	.
.	.	.	.	.	.	4e/	.
=59	=59	=59	=59	=59	=59	=59	=59
1GG]	.	1.G	A-	2r	.	0d	-i,
.	.	.	.	1B	A-	.	.
1GG	-i,	.	.	.	.	.	.
.	.	4F/	-gnus	4A/	-gnus	.	.
.	.	4G/	.	4B\	.	.	.
=60	=60	=60	=60	=60	=60	=60	=60
1r	.	2A/	De-	2c\	De-	0r	.
.	.	1G	.	2B\	.	.	.
1G	A-	.	.	[1d	.	.	.
.	.	4F/	.	.	.	.	.
.	.	4E/	.	.	.	.	.
=61	=61	=61	=61	=61	=61	=61	=61
1.F	.	0D	-i,	2d\]	.	1f	A-
.	.	.	.	4c\	.	.	.
.	.	.	.	4B\	.	.	.
.	.	.	.	2.A/	.	1a	-gnus
4E\	.	.	.	.	.	.	.
4D\	.	.	.	4B\	.	.	.
=62	=62	=62	=62	=62	=62	=62	=62
2E\	.	0r	.	2c\	.	2g/	De-
2D\	-gnus	.	.	2d\	.	1f	.
[1F	De-	.	.	[1A	-i,	.	.
.	.	.	.	.	.	4e/	.
.	.	.	.	.	.	4d/	.
=63	=63	=63	=63	=63	=63	=63	=63
1F]	.	1F	A-	1A]	.	0c	-i
1F	-i,	1A	-gnus	2r	.	.	.
.	.	.	.	[2c\	A-	.	.
=64	=64	=64	=64	=64	=64	=64	=64
2C/	De-	2G/	De-	2c\]	.	0r	.
1D	.	1F	.	2A/	-gnus	.	.
.	.	.	.	2B\	De-	.	.
4C/	.	4E/	.	[2A/	.	.	.
4BB/	.	4D/	.	.	.	.	.
=65	=65	=65	=65	=65	=65	=65	=65
0AA	-i,	0C	-i	2A/]	.	1r	.
.	.	.	.	4G/	.	.	.
.	.	.	.	4F/	.	.	.
.	.	.	.	1E	-i	1c	qui
=66	=66	=66	=66	=66	=66	=66	=66
1D	qui	0r	.	2D/	qui	1d	tol-
.	.	.	.	2F/	.	.	.
2C/	tol-	.	.	2E/	tol-	1e	.
2AA/	.	.	.	[2A/	.	.	.
=67	=67	=67	=67	=67	=67	=67	=67
1D	.	1r	.	4A/]	.	1f	.
.	.	.	.	4G/	.	.	.
.	.	.	.	4A/	.	.	.
.	.	.	.	4B\	.	.	.
1AA	.	1C	qui	1c	.	1e	.
=68	=68	=68	=68	=68	=68	=68	=68
1D	.	1D	tol-	2F/	.	1f	.
.	.	.	.	2.A/	.	.	.
1C	-lis,	1E	.	.	.	1g	.
.	.	.	.	4G/	.	.	.
.	.	.	.	[2c\	.	.	.
=69	=69	=69	=69	=69	=69	=69	=69
1r	.	1F	.	2c\]	.	0c	-lis,
.	.	.	.	4B\	.	.	.
.	.	.	.	4A/	.	.	.
1C	qui	1E	.	1G	.	.	.
=70	=70	=70	=70	=70	=70	=70	=70
1D	tol-	1F	.	1F	-lis,	0r	.
[1E	.	1G	.	1r	.	.	.
=71	=71	=71	=71	=71	=71	=71	=71
1E]	.	0C	-lis,	1G	qui	1r	.
1AA	.	.	.	[1A	tol-	1e	qui
=72	=72	=72	=72	=72	=72	=72	=72
1D	.	0r	.	2A/]	.	1f	tol-
.	.	.	.	2B\	.	.	.
1E	.	.	.	2B\	-lis,	1g	.
.	.	.	.	2c\	qui	.	.
=73	=73	=73	=73	=73	=73	=73	=73
2.F\	.	1r	.	2A/	tol-	1a	.
.	.	.	.	1c	.	.	.
4E\	.	.	.	.	.	.	.
2C/	.	1E	qui	.	.	1g	.
2E\	.	.	.	[2B\	.	.	.
=74	=74	=74	=74	=74	=74	=74	=74
2.D\	.	1F	tol-	2B\]	.	1a	.
.	.	.	.	2A/	-lis,	.	.
4C/	.	.	.	.	.	.	.
1BB	.	1G	.	2r	.	1b	.
.	.	.	.	2d\	qui	.	.
=75	=75	=75	=75	=75	=75	=75	=75
1AA	-lis,	1A	.	2c\	tol-	0e	-lis,
.	.	.	.	2A/	.	.	.
1E	qui	1G	.	2B\	.	.	.
.	.	.	.	2c\	.	.	.
=76	=76	=76	=76	=76	=76	=76	=76
2C/	tol-	1A	.	2c\	-lis,	0r	.
2D\	.	.	.	2A/	qui	.	.
1BB	.	1B	.	1d	tol-	.	.
=77	=77	=77	=77	=77	=77	=77	=77
1AA	-lis,	0E	-lis,	1c	-lis,	1r	.
2r	.	.	.	2B\	qui	1g	qui
2E\	qui	.	.	[2c\	tol-	.	.
=78	=78	=78	=78	=78	=78	=78	=78
1F	tol-	0r	.	2c\]	.	1a	tol-
.	.	.	.	2d\	.	.	.
1G	.	.	.	2d\	-lis,	1b	.
.	.	.	.	2e\	qui	.	.
=79	=79	=79	=79	=79	=79	=79	=79
2.A\	.	1r	.	2c\	tol-	1cc	.
.	.	.	.	1e	.	.	.
4G\	.	.	.	.	.	.	.
2E\	.	1G	qui	.	.	1b	.
2G\	.	.	.	[2d\	.	.	.
=80	=80	=80	=80	=80	=80	=80	=80
2.F\	.	1A	tol-	2d\]	.	1cc	.
.	.	.	.	2c\	-lis,	.	.
4E\	.	.	.	.	.	.	.
1D	.	1B	.	2r	.	1dd	.
.	.	.	.	2f\	pec-	.	.
=81	=81	=81	=81	=81	=81	=81	=81
1C	-lis,	1c	.	2e\	-ca-	0g	-lis
.	.	.	.	2c\	.	.	.
1G	qui	1B	.	2d\	-ta	.	.
.	.	.	.	[2e\	mun-	.	.
=82	=82	=82	=82	=82	=82	=82	=82
2E\	tol-	1c	.	4e\]	.	0r	.
.	.	.	.	4d\	.	.	.
2F\	.	.	.	1c	.	.	.
1D	.	1d	.	.	.	.	.
.	.	.	.	2B\	.	.	.
=83	=83	=83	=83	=83	=83	=83	=83
1C	-lis	0G	-lis	1c	-di,	1r	.
1E	pec-	.	.	2B\	pec-	1g	pec-
.	.	.	.	[2c\	-ca-	.	.
=84	=84	=84	=84	=84	=84	=84	=84
1F	-ca-	0r	.	2c\]	.	1a	-ca-
.	.	.	.	1d	.	.	.
1G	-ta	.	.	.	.	1b	-ta
.	.	.	.	2e\	.	.	.
=85	=85	=85	=85	=85	=85	=85	=85
2.A\	mun-	1r	.	2c\	-ta	1.cc	mun-
.	.	.	.	2.e\	mun-	.	.
4G\	.	.	.	.	.	.	.
2E\	.	1G	pec-	.	.	.	.
.	.	.	.	4d\	.	.	.
2G\	.	.	.	2B\	.	2b\	.
=86	=86	=86	=86	=86	=86	=86	=86
2F\	.	1A	-ca-	1c	.	2a/	.
2E\	.	.	.	.	.	2g/	.
1D	.	1B	-ta	1d	.	1f	.
=87	=87	=87	=87	=87	=87	=87	=87
0C	-di,	1.c	mun-	2G/	-di,	0e	-di,
.	.	.	.	4c\	mun-	.	.
.	.	.	.	4d\	.	.	.
.	.	.	.	4e\	.	.	.
.	.	.	.	4f\	.	.	.
.	.	2B\	.	2g\	.	.	.
=88	=88	=88	=88	=88	=88	=88	=88
0r	.	2A/	.	2f\	.	0r	.
.	.	2G/	.	1e	.	.	.
.	.	1F	.	.	.	.	.
.	.	.	.	2d\	.	.	.
=89	=89	=89	=89	=89	=89	=89	=89
1r	.	0E	-di,	2e\	.	1r	.
.	.	.	.	2c\	.	.	.
1G	pec-	.	.	2B\	-di,	1b	pec-
.	.	.	.	[2e\	pec-	.	.
=90	=90	=90	=90	=90	=90	=90	=90
1A	-ca-	0r	.	2e\]	.	1cc	-ca-
.	.	.	.	2f\	-ca-	.	.
1B	-ta	.	.	2d\	-ta	1dd	-ta
.	.	.	.	2g\	mun-	.	.
=91	=91	=91	=91	=91	=91	=91	=91
1c	mun-	1r	.	2e\	.	1.ee	mun-
.	.	.	.	2.g\	.	.	.
1G	.	1B	pec-	.	.	.	.
.	.	.	.	4f\	.	.	.
.	.	.	.	2g\	.	2dd\	.
=92	=92	=92	=92	=92	=92	=92	=92
2A\	.	1c	-ca-	1e	-di,	2cc\	.
2E\	.	.	.	.	.	2b\	.
1F	.	1d	-ta	2r	.	1a	.
.	.	.	.	2A/	pec-	.	.
=93	=93	=93	=93	=93	=93	=93	=93
0E	-di,	1.e	mun-	2B\	-ca-	0g	-di,
.	.	.	.	2c\	-ta	.	.
.	.	.	.	4G/	mun-	.	.
.	.	.	.	4A/	.	.	.
.	.	2d\	.	4B\	.	.	.
.	.	.	.	4c\	.	.	.
=94	=94	=94	=94	=94	=94	=94	=94
0r	.	2c\	.	4A/	.	0r	.
.	.	.	.	4G/	.	.	.
.	.	2B\	.	1g	.	.	.
.	.	1A	.	.	.	.	.
.	.	.	.	2f#i\	.	.	.
=95	=95	=95	=95	=95	=95	=95	=95
1r	.	0G	-di,	2g\	-di,	1r	.
.	.	.	.	2.G/	do-	.	.
1E	do-	.	.	.	.	1g	do-
.	.	.	.	4A/	.	.	.
.	.	.	.	4B\	.	.	.
.	.	.	.	4c\	.	.	.
=96	=96	=96	=96	=96	=96	=96	=96
1F	.	0r	.	2A/	.	1a	.
.	.	.	.	1d	.	.	.
1G	-na	.	.	.	.	1b	-na
.	.	.	.	2e\	-na	.	.
=97	=97	=97	=97	=97	=97	=97	=97
2.A\	no-	1r	.	2c\	no-	2.cc\	no-
.	.	.	.	2.e\	.	.	.
4G\	.	.	.	.	.	4b\	.
2E\	.	1G	do-	.	.	2cc\	-bis
.	.	.	.	4d\	.	.	.
2G\	-bis	.	.	2B\	.	[2b\	pa-
=98	=98	=98	=98	=98	=98	=98	=98
1F	pa-	1A	.	2c\	.	4b\]	.
.	.	.	.	.	.	4a/	.
.	.	.	.	2d\	.	1a	.
1E	.	1B	-na	2e\	.	.	.
.	.	.	.	[2E/	-bis,	2g#i/	.
=99	=99	=99	=99	=99	=99	=99	=99
1AA	-cem,	2.c\	no-	2E/]	.	1a	-cem,
.	.	.	.	2A/	do-	.	.
.	.	4B\	.	.	.	.	.
1E	do-	2c\	-bis	2.G/	.	2r	.
.	.	[2B\	pa-	.	.	2g/	do-
.	.	.	.	4E/	.	.	.
=100	=100	=100	=100	=100	=100	=100	=100
2D\	.	4B\]	.	2F/	-na	1a	.
.	.	4A/	.	.	.	.	.
2C/	.	1A	.	1E	no-	.	.
1BB	-na	.	.	.	.	1b	-na
.	.	2G#i/	.	2D/	.	.	.
=101	=101	=101	=101	=101	=101	=101	=101
1AA	no-	1A	-cem,	2E/	-bis,	2.cc\	no-
.	.	.	.	2.e\	no-	.	.
.	.	.	.	.	.	4b\	.
1E	-bis-	2r	.	.	.	2cc\	-bis
.	.	.	.	4d\	.	.	.
.	.	2G/	do-	2e\	.	[2b\	pa-
=102	=102	=102	=102	=102	=102	=102	=102
1F	-pa-	1A	.	2c\	.	4b\]	.
.	.	.	.	.	.	4a/	.
.	.	.	.	2d\	-bis	1a	.
1E	.	1B	-na	2e\	pa-	.	.
.	.	.	.	[2E/	-cem,	2g#i/	.
=103	=103	=103	=103	=103	=103	=103	=103
1AA	-cem,	2.c\	no-	2E/]	.	1a	-cem,
.	.	.	.	2A/	do-	.	.
.	.	4B\	.	.	.	.	.
1E	do-	2c\	-bis	2.G/	-na	1r	.
.	.	[2B\	pa-	.	.	.	.
.	.	.	.	4E/	.	.	.
=104	=104	=104	=104	=104	=104	=104	=104
2D\	.	4B\]	.	2F/	no-	0r	.
.	.	4A/	.	.	.	.	.
2C/	.	1A	.	1E	.	.	.
1BB	-na	.	.	.	.	.	.
.	.	2G#i/	.	2D/	.	.	.
=105	=105	=105	=105	=105	=105	=105	=105
!	!	!LO:N:vis=1	!	!	!	!	!
2.AA/	no-	[0Al	-cem.	2E/	.	0a	pa-
.	.	.	.	2F/	.	.	.
4BB/	.	.	.	.	.	.	.
2C/	-bis	.	.	2E/	-bis	.	.
[2D\	pa-	.	.	[2F/	pa-	.	.
=106	=106	=106	=106	=106	=106	=106	=106
2D\]	.	0A_	.	4F/]	.	[0al	-cem.
.	.	.	.	4D/	.	.	.
2C/	.	.	.	2E/	.	.	.
1D	.	.	.	1F	.	.	.
=107	=107	=107	=107	=107	=107	=107	=107
0AAl	-cem.	0A]	.	0El	-cem.	0a]	.
==	==	==	==	==	==	==	==
*-	*-	*-	*-	*-	*-	*-	*-
!!!RDF**kern: l=long note in original notation
!!!RDF**kern: i=editorial accidental
!!!ENC: Jesse Rodin; Victoria Chang 2011/04/01/
!!!END: 2011/04/01/
!!!EED:	Jesse Rodin
!!!EEV:	2011/04/06/
!!attribution-level@Jos: 1 (secure)
!!!ONB:	Translated from MusicXML and edited on 2011/04/06/ by Craig Sapp
!!muse2ps: T^@{OPR}^u^@{ONM}{. }@{OTL}^C^@{COM}\n@{SCT}^i2I100v85,90,85,130Q8c140
!!!ONB: April 2013 Concert
